X: 317
T: Khosidl from Shtetl Lutshinetz
R: khusidl
Q: 1/4=80
B: German Goldenshteyn "Shpilt klezmorimlach klingen zoln di gesalach" New York 2003 v.3 #117
Z: 2012 John Chambers <jc:trillian.mit.edu>
M: 2/4
L: 1/16
K: Em
|:\
(ef)gf e2e2 | (ef)df e2e2 | (ef)gf e2e2 | g2a2 d4 |\
(ef)gf e2e2 | g2b2 g4 | f2e2d2a2 | e8 :|
|:\
g2a2 a2a2 | (ga)gf e4 | efg2 fgf2 | (ed)ge d4 |\
g2a2 a2c'2 | (ba)gf e4 | f2e2d2a2 | e8 :|
|:\
g4- gfef | g4- gfef | ec'b2 aba2 | g4- gfef |\
ec'b2 aba2 | gag2 fed2 | f2e2d2a2 | e8 :|
